frontend/public/nav-user.svg

<svg width="24" height="24" viewBox="0 0 24 24" fill="none" xmlns="http://www.w3.org/2000/svg">
<path d="M12 12C10.9 12 9.95833 11.6083 9.175 10.825C8.39167 10.0417 8 9.1 8 8C8 6.9 8.39167 5.95833 9.175 5.175C9.95833 4.39167 10.9 4 12 4C13.1 4 14.0417 4.39167 14.825 5.175C15.6083 5.95833 16 6.9 16 8C16 9.1 15.6083 10.0417 14.825 10.825C14.0417 11.6083 13.1 12 12 12ZM4 18V17.2C4 16.6333 4.14583 16.1125 4.4375 15.6375C4.72917 15.1625 5.11667 14.8 5.6 14.55C6.63333 14.0333 7.68333 13.6458 8.75 13.3875C9.81667 13.1292 10.9 13 12 13C13.1 13 14.1833 13.1292 15.25 13.3875C16.3167 13.6458 17.3667 14.0333 18.4 14.55C18.8833 14.8 19.2708 15.1625 19.5625 15.6375C19.8542 16.1125 20 16.6333 20 17.2V18C20 18.55 19.8042 19.0208 19.4125 19.4125C19.0208 19.8042 18.55 20 18 20H6C5.45 20 4.97917 19.8042 4.5875 19.4125C4.19583 19.0208 4 18.55 4 18ZM6 18H18V17.2C18 17.0167 17.9542 16.85 17.8625 16.7C17.7708 16.55 17.65 16.4333 17.5 16.35C16.6 15.9 15.6917 15.5625 14.775 15.3375C13.8583 15.1125 12.9333 15 12 15C11.0667 15 10.1417 15.1125 9.225 15.3375C8.30833 15.5625 7.4 15.9 6.5 16.35C6.35 16.4333 6.22917 16.55 6.1375 16.7C6.04583 16.85 6 17.0167 6 17.2V18ZM12 10C12.55 10 13.0208 9.80417 13.4125 9.4125C13.8042 9.02083 14 8.55 14 8C14 7.45 13.8042 6.97917 13.4125 6.5875C13.0208 6.19583 12.55 6 12 6C11.45 6 10.9792 6.19583 10.5875 6.5875C10.1958 6.97917 10 7.45 10 8C10 8.55 10.1958 9.02083 10.5875 9.4125C10.9792 9.80417 11.45 10 12 10Z" fill="#C5C5CB"/>
</svg>

<svg fill="none" viewBox="0 0 24 24"><path fill="#c5c5cb" d="M12 12q-1.65 0-2.825-1.175T8 8t1.175-2.825T12 4t2.825 1.175T16 8t-1.175 2.825T12 12m-8 6v-.8q0-.85.438-1.562.437-.713 1.162-1.088a14.8 14.8 0 0 1 3.15-1.163A13.8 13.8 0 0 1 12 13q1.65 0 3.25.387 1.6.388 3.15 1.163.724.375 1.163 1.087Q20 16.35 20 17.2v.8q0 .824-.587 1.413A1.93 1.93 0 0 1 18 20H6q-.824 0-1.412-.587A1.93 1.93 0 0 1 4 18m2 0h12v-.8a.97.97 0 0 0-.5-.85q-1.35-.675-2.725-1.012a11.6 11.6 0 0 0-5.55 0Q7.85 15.675 6.5 16.35a.97.97 0 0 0-.5.85zm6-8q.825 0 1.412-.588Q14 8.826 14 8q0-.824-.588-1.412A1.93 1.93 0 0 0 12 6q-.825 0-1.412.588A1.93 1.93 0 0 0 10 8q0 .825.588 1.412Q11.175 10 12 10"/></svg>
